; generated by PrusaSlicer 2.6.0+win64 on 2023-09-03 at 04:38:31 UTC

; 

; external perimeters extrusion width = 0.60mm
; perimeters extrusion width = 0.50mm
; infill extrusion width = 0.50mm
; solid infill extrusion width = 0.50mm
; top infill extrusion width = 0.45mm
; first layer extrusion width = 0.42mm

; external perimeters extrusion width = 0.60mm
; perimeters extrusion width = 0.50mm
; infill extrusion width = 0.50mm
; solid infill extrusion width = 0.50mm
; top infill extrusion width = 0.45mm
; first layer extrusion width = 0.42mm

M73 P0 R21
M73 Q0 S21
;TYPE:Custom
M862.3 P "MK3S" ; printer model check
M862.1 P0.4 ; nozzle diameter check
M115 U3.10.0 ; tell printer latest fw version
G90 ; use absolute coordinates
M83 ; extruder relative mode
M104 S215 ; set extruder temp
M140 S60 ; set bed temp
M190 S60 ; wait for bed temp
M109 S215 ; wait for extruder temp
G28 W ; home all without mesh bed level
G80 ; mesh bed leveling
G1 Z0.2 F720
G1 Y-3 F1000 ; go outside print area
G92 E0
G1 X60 E9 F1000 ; intro line
G1 X100 E12.5 F1000 ; intro line
G92 E0
M221 S95

; Don't change E values below. Excessive value can damage the printer.

M907 E538 ; set extruder motor current
G21 ; set units to millimeters
G90 ; use absolute coordinates
M83 ; use relative distances for extrusion
M900 K0.05 ; Filament gcode LA 1.5
M900 K30 ; Filament gcode LA 1.0
M107
;LAYER_CHANGE
;Z:0.2
;HEIGHT:0.2
;BEFORE_LAYER_CHANGE
G92 E0.0
;0.2


G1 E-.8 F2100
G1 Z.4 F720
;AFTER_LAYER_CHANGE
;0.2
G1 X167.732 Y141.782 F10800
G1 Z.2 F720
G1 E.8 F2100
M204 S800
;TYPE:Skirt/Brim
;WIDTH:0.42
G1 F1200
G1 X170.719 Y138.795 E.13245
G1 X172.4 Y138.099 E.05705
G1 X200.225 Y138.099 E.87243
M73 P0 R20
G1 X201.906 Y138.795 E.05705
G1 X204.893 Y141.782 E.13245
G1 X205.59 Y143.463 E.05706
G1 X205.587 Y164.408 E.65672
G1 X204.891 Y166.089 E.05705
M73 Q0 S20
G1 X201.903 Y169.076 E.13247
G1 X200.223 Y169.772 E.05702
G1 X172.398 Y169.772 E.87243
G1 X170.717 Y169.076 E.05705
M73 Q1 S20
G1 X167.729 Y166.089 E.13247
G1 X167.033 Y164.408 E.05705
M73 P1 R20
G1 X167.035 Y143.463 E.65672
G1 X167.709 Y141.838 E.05516
M204 S1000
;WIPE_START
G1 F8640
G1 X170.145 Y139.375 E-.8
;WIPE_END
G1 Z.6 F720
G1 X170.289 Y143.227 F10800
G1 Z.2 F720
G1 E.8 F2100
M204 S800
G1 F1200
G1 X170.846 Y142.442 E.03018
G1 X171.53 Y141.777 E.02991
G1 X172.75 Y141.084 E.04399
G1 X174.171 Y140.762 E.04568
G1 X198.502 Y140.766 E.76288
G1 X199.522 Y140.96 E.03255
G1 X200.5 Y141.375 E.03331
G1 X201.625 Y142.271 E.04509
G1 X202.518 Y143.609 E.05044
G1 X202.926 Y145.155 E.05013
G1 X202.926 Y152.599 E.2334
G1 X202.591 Y153.94 E.04334
G1 X202.924 Y155.272 E.04305
G1 X202.924 Y162.736 E.23403
G1 X202.333 Y164.644 E.06263
G1 X201.777 Y165.429 E.03016
G1 X201.093 Y166.094 E.02991
G1 X199.872 Y166.787 E.04402
G1 X198.452 Y167.109 E.04565
G1 X174.069 Y167.109 E.76451
G1 X172.161 Y166.518 E.06263
G1 X171.376 Y165.962 E.03016
G1 X170.711 Y165.278 E.02991
G1 X170.018 Y164.058 E.04399
G1 X169.697 Y162.638 E.04565
G1 X169.697 Y155.272 E.23096
G1 X170.034 Y153.927 E.04348
G1 X169.917 Y153.652 E.00937
G1 X169.702 Y152.554 E.03508
G1 X169.699 Y145.136 E.23259
G1 X170.272 Y143.284 E.06078
M204 S1000
G1 X170.615 Y143.419 F10800
M204 S800
G1 F1200
G1 X171.122 Y142.7 E.02758
G1 X171.775 Y142.064 E.02858
G1 X172.91 Y141.426 E.04082
G1 X174.191 Y141.139 E.04116
G1 X198.484 Y141.143 E.76169
G1 X199.43 Y141.326 E.03021
G1 X200.327 Y141.711 E.03061
G1 X201.366 Y142.547 E.04181
G1 X202.162 Y143.737 E.04489
G1 X202.549 Y145.18 E.04684
G1 X202.549 Y152.575 E.23187
G1 X202.202 Y153.94 E.04416
G1 X202.547 Y155.296 E.04387
G1 X202.547 Y162.708 E.2324
G1 X202.008 Y164.452 E.05723
G1 X201.501 Y165.171 E.02758
G1 X200.848 Y165.807 E.02858
G1 X199.712 Y166.445 E.04085
G1 X198.432 Y166.732 E.04113
G1 X174.097 Y166.732 E.76301
G1 X172.354 Y166.193 E.0572
G1 X171.634 Y165.686 E.02761
G1 X170.999 Y165.033 E.02856
G1 X170.361 Y163.898 E.04082
G1 X170.074 Y162.617 E.04116
G1 X170.074 Y155.296 E.22954
G1 X170.432 Y153.892 E.04543
G1 X170.282 Y153.555 E.01157
G1 X170.079 Y152.535 E.03261
G1 X170.076 Y145.164 E.23111
G1 X170.597 Y143.477 E.05536
M204 S1000
M73 Q2 S20
G1 X170.94 Y143.612 F10800
M204 S800
M73 P2 R20
G1 F1200
G1 X171.419 Y142.932 E.02608
G1 X172.018 Y142.353 E.02612
G1 X173.069 Y141.769 E.0377
G1 X174.211 Y141.516 E.03667
G1 X198.465 Y141.52 E.76047
G1 X199.336 Y141.692 E.02784
G1 X200.153 Y142.047 E.02793
G1 X201.105 Y142.82 E.03845
G1 X201.83 Y143.919 E.04128
G1 X202.172 Y145.204 E.04169
G1 X202.172 Y152.551 E.23036
G1 X201.856 Y153.771 E.03951
G1 X201.776 Y153.937 E.00578
G1 X201.854 Y154.1 E.00567
G1 X202.169 Y155.32 E.03951
G1 X202.169 Y162.68 E.23077
G1 X201.682 Y164.259 E.05181
G1 X201.203 Y164.939 E.02608
G1 X200.604 Y165.518 E.02612
G1 X199.554 Y166.102 E.03767
G1 X198.412 Y166.355 E.03667
G1 X174.126 Y166.355 E.76147
G1 X172.547 Y165.868 E.05181
G1 X171.866 Y165.388 E.02612
G1 X171.288 Y164.789 E.0261
G1 X170.704 Y163.739 E.03767
G1 X170.451 Y162.597 E.03667
G1 X170.451 Y155.32 E.22817
G1 X170.766 Y154.101 E.03948
G1 X170.859 Y153.912 E.0066
G1 X170.647 Y153.457 E.01574
G1 X170.456 Y152.516 E.03011
G1 X170.453 Y145.192 E.22964
G1 X170.923 Y143.669 E.04997
M204 S1000
G1 X171.266 Y143.805 F10800
M204 S800
G1 F1200
G1 X171.717 Y143.164 E.02457
G1 X172.261 Y142.643 E.02362
G1 X173.226 Y142.113 E.03452
G1 X174.231 Y141.893 E.03226
G1 X198.446 Y141.897 E.75924
G1 X199.241 Y142.057 E.02543
G1 X199.976 Y142.381 E.02519
G1 X200.843 Y143.093 E.03518
G1 X201.497 Y144.098 E.0376
G1 X201.795 Y145.228 E.03664
G1 X201.795 Y152.526 E.22882
G1 X201.498 Y153.648 E.03639
G1 X201.343 Y153.938 E.01031
G1 X201.496 Y154.223 E.01014
G1 X201.792 Y155.345 E.03638
G1 X201.792 Y162.652 E.22911
G1 X201.357 Y164.066 E.04639
G1 X200.906 Y164.707 E.02457
G1 X200.362 Y165.228 E.02362
G1 X199.397 Y165.758 E.03452
G1 X198.391 Y165.978 E.03229
G1 X174.154 Y165.978 E.75993
G1 X172.739 Y165.542 E.04642
G1 X172.099 Y165.091 E.02455
G1 X171.577 Y164.547 E.02364
G1 X171.047 Y163.582 E.03452
G1 X170.828 Y162.577 E.03225
G1 X170.828 Y155.345 E.22675
G1 X171.124 Y154.223 E.03638
G1 X171.285 Y153.925 E.01062
G1 X171.011 Y153.357 E.01977
G1 X170.834 Y152.496 E.02756
G1 X170.83 Y145.22 E.22813
G1 X171.248 Y143.862 E.04455
M204 S1000
G1 X171.592 Y143.996 F10800
M204 S800
G1 F1200
G1 X171.992 Y143.423 E.02191
G1 X172.503 Y142.933 E.0222
G1 X173.381 Y142.458 E.0313
G1 X174.251 Y142.271 E.0279
G1 X198.427 Y142.274 E.75802
G1 X199.108 Y142.411 E.02178
G1 X199.8 Y142.715 E.0237
G1 X200.579 Y143.364 E.03179
G1 X201.141 Y144.226 E.03226
G1 X201.418 Y145.253 E.03335
G1 X201.418 Y152.501 E.22726
G1 X201.141 Y153.524 E.03323
M73 Q3 S20
G1 X200.906 Y153.938 E.01493
G1 X201.139 Y154.347 E.01476
M73 P3 R20
G1 X201.415 Y155.37 E.03322
G1 X201.415 Y162.624 E.22744
G1 X201.031 Y163.875 E.04103
G1 X200.631 Y164.448 E.02191
G1 X200.12 Y164.938 E.0222
G1 X199.242 Y165.413 E.0313
G1 X198.372 Y165.601 E.02791
G1 X174.182 Y165.601 E.75846
G1 X172.931 Y165.216 E.04104
G1 X172.358 Y164.816 E.02191
G1 X171.868 Y164.305 E.0222
G1 X171.392 Y163.427 E.03131
G1 X171.205 Y162.557 E.0279
G1 X171.205 Y155.37 E.22534
G1 X171.481 Y154.347 E.03322
G1 X171.713 Y153.938 E.01474
G1 X171.375 Y153.254 E.02392
G1 X171.211 Y152.476 E.02493
G1 X171.207 Y145.248 E.22663
G1 X171.574 Y144.054 E.03917
M204 S1000
G1 X171.918 Y144.188 F10800
M204 S800
G1 F1200
G1 X172.29 Y143.655 E.02038
G1 X172.743 Y143.225 E.01958
G1 X173.534 Y142.803 E.02811
G1 X174.27 Y142.648 E.02358
G1 X198.407 Y142.651 E.7568
G1 X199.011 Y142.776 E.01934
G1 X199.621 Y143.048 E.02094
G1 X200.314 Y143.633 E.02844
G1 X200.807 Y144.404 E.02869
G1 X201.041 Y145.278 E.02837
G1 X201.041 Y152.475 E.22566
G1 X200.785 Y153.398 E.03003
G1 X200.466 Y153.938 E.01966
G1 X200.783 Y154.473 E.0195
G1 X201.038 Y155.396 E.03002
G1 X201.038 Y162.596 E.22575
G1 X200.705 Y163.683 E.03565
G1 X200.333 Y164.216 E.02038
G1 X199.879 Y164.646 E.01961
G1 X199.088 Y165.068 E.02811
G1 X198.352 Y165.223 E.02358
G1 X174.21 Y165.223 E.75696
G1 X173.122 Y164.89 E.03568
G1 X172.59 Y164.518 E.02035
G1 X172.159 Y164.065 E.01961
G1 X171.738 Y163.274 E.0281
G1 X171.582 Y162.538 E.02359
G1 X171.582 Y155.396 E.22393
G1 X171.837 Y154.473 E.03002
G1 X172.145 Y153.953 E.01895
G1 X171.738 Y153.149 E.02825
G1 X171.588 Y152.455 E.02226
G1 X171.584 Y145.276 E.22509
G1 X171.9 Y144.245 E.03381
M204 S1000
G1 X172.245 Y144.377 F10800
M204 S800
G1 F1200
G1 X172.564 Y143.915 E.0176
G1 X172.983 Y143.517 E.01812
G1 X173.685 Y143.15 E.02484
G1 X174.289 Y143.025 E.01934
G1 X198.387 Y143.028 E.75558
G1 X198.912 Y143.14 E.01683
G1 X199.439 Y143.379 E.01814
G1 X200.047 Y143.901 E.02513
G1 X200.452 Y144.532 E.02351
G1 X200.664 Y145.304 E.0251
G1 X200.664 Y152.448 E.224
G1 X200.43 Y153.268 E.02674
G1 X200.149 Y153.73 E.01695
G1 X199.956 Y153.938 E.0089
G1 X200.145 Y154.137 E.00861
G1 X200.428 Y154.603 E.01709
G1 X200.661 Y155.423 E.02673
G1 X200.661 Y162.568 E.22403
G1 X200.378 Y163.494 E.03036
G1 X200.059 Y163.956 E.0176
G1 X199.639 Y164.354 E.01814
G1 X198.938 Y164.721 E.02481
G1 X198.334 Y164.846 E.01934
G1 X174.238 Y164.846 E.75551
G1 X173.312 Y164.563 E.03036
G1 X172.849 Y164.244 E.01763
G1 X172.451 Y163.825 E.01812
G1 X172.084 Y163.123 E.02484
G1 X171.959 Y162.519 E.01934
G1 X171.959 Y155.423 E.22249
G1 X172.192 Y154.603 E.02673
M73 Q4 S20
G1 X172.473 Y154.141 E.01695
G1 X172.668 Y153.933 E.00894
G1 X172.391 Y153.616 E.0132
G1 X172.086 Y153.003 E.02147
G1 X171.965 Y152.435 E.01821
G1 X171.961 Y145.304 E.22359
G1 X172.228 Y144.435 E.0285
M204 S1000
M73 P4 R20
G1 X172.573 Y144.565 F10800
M204 S800
G1 F1200
G1 X172.839 Y144.174 E.01483
G1 X173.223 Y143.81 E.01659
G1 X173.832 Y143.498 E.02145
G1 X174.307 Y143.402 E.01519
G1 X198.366 Y143.405 E.75435
G1 X198.809 Y143.503 E.01423
G1 X199.255 Y143.71 E.01542
G1 X199.778 Y144.166 E.02176
G1 X200.097 Y144.662 E.01849
G1 X200.286 Y145.331 E.0218
G1 X200.286 Y152.42 E.22227
G1 X200.076 Y153.136 E.0234
G1 X199.844 Y153.508 E.01375
G1 X199.405 Y153.943 E.01938
G1 X199.84 Y154.362 E.01894
G1 X200.074 Y154.735 E.01381
G1 X200.284 Y155.451 E.0234
G1 X200.284 Y162.54 E.22227
G1 X200.049 Y163.306 E.02512
G1 X199.784 Y163.697 E.01481
G1 X199.4 Y164.061 E.01659
G1 X198.79 Y164.373 E.02148
G1 X198.315 Y164.469 E.01519
G1 X174.266 Y164.469 E.75404
G1 X173.499 Y164.235 E.02514
G1 X173.108 Y163.969 E.01483
G1 X172.744 Y163.585 E.01659
G1 X172.432 Y162.976 E.02145
G1 X172.336 Y162.5 E.01523
G1 X172.336 Y155.451 E.22102
G1 X172.546 Y154.735 E.0234
G1 X172.779 Y154.363 E.01376
G1 X173.199 Y153.947 E.01854
G1 X172.716 Y153.422 E.02237
G1 X172.435 Y152.857 E.01979
G1 X172.342 Y152.416 E.01413
G1 X172.339 Y145.332 E.22211
G1 X172.556 Y144.622 E.02328
M204 S1000
G1 X172.903 Y144.75 F10800
M204 S800
G1 F1200
G1 X173.114 Y144.432 E.01197
G1 X173.461 Y144.103 E.01499
G1 X173.976 Y143.847 E.01803
G1 X174.325 Y143.779 E.01115
G1 X198.343 Y143.783 E.75307
G1 X198.703 Y143.865 E.01158
G1 X199.068 Y144.038 E.01266
G1 X199.508 Y144.43 E.01848
G1 X199.744 Y144.795 E.01363
G1 X199.909 Y145.359 E.01843
G1 X199.909 Y152.393 E.22055
G1 X199.743 Y152.958 E.01846
G1 X199.537 Y153.287 E.01217
G1 X199.162 Y153.65 E.01636
G1 X198.621 Y153.932 E.01913
G1 X199.108 Y154.186 E.01722
G1 X199.535 Y154.584 E.0183
G1 X199.741 Y154.914 E.0122
G1 X199.907 Y155.478 E.01843
G1 X199.907 Y162.511 E.22051
G1 X199.72 Y163.121 E.02
G1 X199.508 Y163.439 E.01198
G1 X199.162 Y163.768 E.01497
G1 X198.647 Y164.024 E.01803
G1 X198.298 Y164.092 E.01115
G1 X174.294 Y164.092 E.75263
G1 X173.685 Y163.905 E.01997
G1 X173.367 Y163.694 E.01197
G1 X173.038 Y163.347 E.01499
G1 X172.781 Y162.832 E.01805
G1 X172.713 Y162.483 E.01115
G1 X172.713 Y155.478 E.21964
G1 X172.88 Y154.914 E.01844
G1 X173.086 Y154.584 E.0122
G1 X173.461 Y154.221 E.01636
G1 X173.953 Y153.964 E.0174
G1 X173.369 Y153.574 E.02202
G1 X173.04 Y153.227 E.01499
G1 X172.783 Y152.712 E.01805
G1 X172.719 Y152.397 E.01008
G1 X172.716 Y145.36 E.22064
G1 X172.885 Y144.808 E.0181
M204 S1000
;WIPE_START
G1 F8640
G1 X173.114 Y144.432 E-.10165
G1 X173.461 Y144.103 E-.11041
G1 X173.976 Y143.847 E-.1328
G1 X174.325 Y143.779 E-.0821
G1 X175.941 Y143.779 E-.37304
;WIPE_END
G1 Z.6 F720
G1 X174.339 Y154.276 F10800
G1 Z.2 F720
G1 E.8 F2100
M204 S800
G1 F1200
G1 X198.319 Y154.279 E.75188
G1 X198.558 Y154.335 E.0077
G1 X198.878 Y154.486 E.01109
G1 X199.233 Y154.811 E.01509
G1 X199.389 Y155.052 E.009
G1 X199.53 Y155.508 E.01497
G1 X199.53 Y162.483 E.2187
G1 X199.389 Y162.938 E.01494
G1 X199.232 Y163.181 E.00907
G1 X198.925 Y163.473 E.01328
G1 X198.508 Y163.673 E.0145
G1 X198.281 Y163.715 E.00724
G1 X174.323 Y163.715 E.75119
G1 X173.867 Y163.574 E.01497
M73 P5 R20
M73 Q5 S20
G1 X173.624 Y163.417 E.00907
G1 X173.333 Y163.11 E.01326
G1 X173.133 Y162.693 E.0145
G1 X173.09 Y162.466 E.00724
G1 X173.09 Y155.508 E.21816
G1 X173.231 Y155.052 E.01497
G1 X173.388 Y154.809 E.00907
G1 X173.696 Y154.518 E.01329
G1 X174.112 Y154.318 E.01447
G1 X174.28 Y154.287 E.00536
M204 S1000
G1 X174.344 Y154.654 F10800
M204 S800
G1 F1200
G1 X198.297 Y154.656 E.75103
G1 X198.414 Y154.684 E.00377
G1 X198.688 Y154.813 E.0095
G1 X198.957 Y155.068 E.01162
G1 X199.04 Y155.195 E.00476
G1 X199.153 Y155.539 E.01135
G1 X199.153 Y162.451 E.21672
G1 X199.04 Y162.796 E.01138
G1 X198.957 Y162.923 E.00476
G1 X198.689 Y163.176 E.01156
G1 X198.377 Y163.319 E.01076
G1 X198.266 Y163.338 E.00353
G1 X174.354 Y163.338 E.74974
G1 X174.01 Y163.225 E.01135
G1 X173.883 Y163.142 E.00476
G1 X173.629 Y162.874 E.01158
G1 X173.487 Y162.562 E.01075
G1 X173.467 Y162.451 E.00354
G1 X173.467 Y155.539 E.21672
G1 X173.581 Y155.195 E.01136
M73 P5 R19
G1 X173.664 Y155.068 E.00476
G1 X173.931 Y154.814 E.01155
G1 X174.285 Y154.665 E.01204
M204 S1000
G1 X174.359 Y155.033 F10800
M204 S800
G1 F1200
G1 X198.277 Y155.036 E.74993
G1 X198.495 Y155.139 E.00756
G1 X198.676 Y155.32 E.00803
G1 X198.776 Y155.575 E.00859
G1 X198.776 Y162.416 E.21449
G1 X198.676 Y162.671 E.00859
G1 X198.495 Y162.851 E.008
G1 X198.245 Y162.961 E.00856
G1 X174.389 Y162.961 E.74799
G1 X174.135 Y162.861 E.00856
M73 Q5 S19
G1 X173.954 Y162.681 E.008
G1 X173.845 Y162.43 E.00858
G1 X173.845 Y155.575 E.21493
G1 X173.944 Y155.32 E.00858
G1 X174.125 Y155.139 E.00803
G1 X174.303 Y155.055 E.00617
M204 S1000
G1 X174.431 Y155.407 F10800
M204 S800
G1 F1200
G1 X198.189 Y155.407 E.74492
G1 X198.258 Y155.435 E.00233
G1 X198.37 Y155.547 E.00497
G1 X198.399 Y155.616 E.00235
G1 X198.399 Y162.374 E.21189
G1 X198.37 Y162.444 E.00238
G1 X198.258 Y162.555 E.00494
G1 X198.189 Y162.584 E.00235
G1 X174.431 Y162.584 E.74492
G1 X174.362 Y162.555 E.00235
G1 X174.25 Y162.444 E.00494
G1 X174.222 Y162.374 E.00236
G1 X174.222 Y155.616 E.21189
G1 X174.25 Y155.547 E.00233
G1 X174.376 Y155.43 E.00539
M204 S1000
;WIPE_START
G1 F8640
G1 X177.841 Y155.427 E-.8
;WIPE_END
G1 Z.6 F720
G1 X174.376 Y153.596 F10800
G1 Z.2 F720
G1 E.8 F2100
M204 S800
G1 F1200
G1 X174.325 Y153.596 E.0016
G1 X173.869 Y153.455 E.01497
G1 X173.626 Y153.297 E.00909
G1 X173.335 Y152.99 E.01326
G1 X173.135 Y152.574 E.01447
G1 X173.093 Y152.347 E.00724
G1 X173.093 Y145.388 E.21819
G1 X173.233 Y144.933 E.01493
G1 X173.391 Y144.69 E.00909
G1 X173.698 Y144.398 E.01328
G1 X174.115 Y144.198 E.0145
G1 X174.342 Y144.156 E.00724
G1 X198.322 Y144.16 E.75188
G1 X198.56 Y144.215 E.00766
M73 P6 R19
M73 Q6 S19
G1 X198.88 Y144.366 E.01109
G1 X199.235 Y144.691 E.01509
G1 X199.392 Y144.933 E.00904
G1 X199.532 Y145.388 E.01493
G1 X199.532 Y152.363 E.2187
G1 X199.392 Y152.819 E.01496
G1 X199.234 Y153.062 E.00909
G1 X198.927 Y153.353 E.01326
G1 X198.51 Y153.553 E.0145
G1 X198.283 Y153.596 E.00724
G1 X174.436 Y153.596 E.74771
M204 S1000
G1 X174.436 Y153.218 F10800
M204 S800
G1 F1200
G1 X174.357 Y153.218 E.00248
G1 X174.012 Y153.105 E.01138
G1 X173.885 Y153.022 E.00476
G1 X173.631 Y152.755 E.01155
G1 X173.489 Y152.442 E.01078
G1 X173.47 Y152.332 E.0035
G1 X173.47 Y145.42 E.21672
G1 X173.583 Y145.076 E.01135
G1 X173.666 Y144.948 E.00478
G1 X173.933 Y144.695 E.01153
G1 X174.246 Y144.552 E.01079
G1 X174.357 Y144.533 E.00353
G1 X198.3 Y144.537 E.75072
G1 X198.417 Y144.564 E.00376
G1 X198.691 Y144.694 E.00951
G1 X198.959 Y144.948 E.01158
