; generated by PrusaSlicer 2.6.0+win64 on 2023-09-03 at 05:22:08 UTC

; 

; external perimeters extrusion width = 0.60mm
; perimeters extrusion width = 0.50mm
; infill extrusion width = 0.50mm
; solid infill extrusion width = 0.50mm
; top infill extrusion width = 0.45mm
; first layer extrusion width = 0.42mm

; external perimeters extrusion width = 0.60mm
; perimeters extrusion width = 0.50mm
; infill extrusion width = 0.50mm
; solid infill extrusion width = 0.50mm
; top infill extrusion width = 0.45mm
; first layer extrusion width = 0.42mm

; external perimeters extrusion width = 0.60mm
; perimeters extrusion width = 0.50mm
; infill extrusion width = 0.50mm
; solid infill extrusion width = 0.50mm
; top infill extrusion width = 0.45mm
; first layer extrusion width = 0.42mm

; external perimeters extrusion width = 0.60mm
; perimeters extrusion width = 0.50mm
; infill extrusion width = 0.50mm
; solid infill extrusion width = 0.50mm
; top infill extrusion width = 0.45mm
; first layer extrusion width = 0.42mm

; external perimeters extrusion width = 0.60mm
; perimeters extrusion width = 0.50mm
; infill extrusion width = 0.50mm
; solid infill extrusion width = 0.50mm
; top infill extrusion width = 0.45mm
; first layer extrusion width = 0.42mm

; external perimeters extrusion width = 0.60mm
; perimeters extrusion width = 0.50mm
; infill extrusion width = 0.50mm
; solid infill extrusion width = 0.50mm
; top infill extrusion width = 0.45mm
; first layer extrusion width = 0.42mm

; external perimeters extrusion width = 0.60mm
; perimeters extrusion width = 0.50mm
; infill extrusion width = 0.50mm
; solid infill extrusion width = 0.50mm
; top infill extrusion width = 0.45mm
; first layer extrusion width = 0.42mm

; external perimeters extrusion width = 0.60mm
; perimeters extrusion width = 0.50mm
; infill extrusion width = 0.50mm
; solid infill extrusion width = 0.50mm
; top infill extrusion width = 0.45mm
; first layer extrusion width = 0.42mm

; external perimeters extrusion width = 0.60mm
; perimeters extrusion width = 0.50mm
; infill extrusion width = 0.50mm
; solid infill extrusion width = 0.50mm
; top infill extrusion width = 0.45mm
; first layer extrusion width = 0.42mm

; external perimeters extrusion width = 0.60mm
; perimeters extrusion width = 0.50mm
; infill extrusion width = 0.50mm
; solid infill extrusion width = 0.50mm
; top infill extrusion width = 0.45mm
; first layer extrusion width = 0.42mm

M73 P0 R83
M73 Q0 S84
;TYPE:Custom
M862.3 P "MK3S" ; printer model check
M862.1 P0.4 ; nozzle diameter check
M115 U3.10.0 ; tell printer latest fw version
G90 ; use absolute coordinates
M83 ; extruder relative mode
M104 S215 ; set extruder temp
M140 S60 ; set bed temp
M190 S60 ; wait for bed temp
M109 S215 ; wait for extruder temp
G28 W ; home all without mesh bed level
G80 ; mesh bed leveling
G1 Z0.2 F720
G1 Y-3 F1000 ; go outside print area
G92 E0
G1 X60 E9 F1000 ; intro line
G1 X100 E12.5 F1000 ; intro line
G92 E0
M221 S95

; Don't change E values below. Excessive value can damage the printer.

M907 E538 ; set extruder motor current
G21 ; set units to millimeters
G90 ; use absolute coordinates
M83 ; use relative distances for extrusion
M900 K0.05 ; Filament gcode LA 1.5
M900 K30 ; Filament gcode LA 1.0
M107
;LAYER_CHANGE
;Z:0.2
;HEIGHT:0.2
;BEFORE_LAYER_CHANGE
G92 E0.0
;0.2


G1 E-.8 F2100
G1 Z.4 F720
;AFTER_LAYER_CHANGE
;0.2
G1 X144.592 Y148.348 F10800
G1 Z.2 F720
G1 E.8 F2100
M204 S800
;TYPE:Skirt/Brim
;WIDTH:0.42
G1 F1200
G1 X145.328 Y147.848 E.0279
G1 X175.328 Y134.848 E1.02515
G1 X176.273 Y134.652 E.03026
G1 X234.098 Y134.652 E1.81306
G1 X235.779 Y135.348 E.05705
G1 X238.766 Y138.336 E.13247
G1 X239.462 Y140.016 E.05702
G1 X239.462 Y189.841 E1.56223
G1 X238.766 Y191.522 E.05705
G1 X235.779 Y194.51 E.13247
G1 X234.098 Y195.206 E.05705
G1 X176.273 Y195.206 E1.81306
G1 X175.328 Y195.01 E.03026
M73 Q0 S83
G1 X145.328 Y182.01 E1.02515
G1 X144.592 Y181.51 E.0279
G1 X141.605 Y178.522 E.13247
G1 X140.908 Y176.841 E.05706
G1 X140.908 Y153.016 E.74702
G1 X141.605 Y151.336 E.05703
G1 X144.55 Y148.39 E.13061
M204 S1000
;WIPE_START
G1 F8640
G1 X145.328 Y147.848 E-.21894
G1 X147.637 Y146.847 E-.58106
;WIPE_END
G1 Z.6 F720
G1 X145.901 Y151.027 F10800
G1 Z.2 F720
G1 E.8 F2100
M204 S800
G1 F1200
G1 X146.773 Y150.58 E.03072
G1 X148.047 Y150.315 E.0408
G1 X172.376 Y150.319 E.76282
G1 X173.443 Y150.528 E.03409
G1 X173.921 Y150.726 E.01622
G1 X173.576 Y149.105 E.05196
G1 X173.611 Y141.424 E.24083
G1 X173.96 Y140.206 E.03973
G1 X174.631 Y139.101 E.04053
G1 X175.711 Y138.111 E.04594
G1 X176.825 Y137.562 E.03894
G1 X178.048 Y137.315 E.03912
G1 X202.375 Y137.319 E.76276
G1 X203.481 Y137.54 E.03536
G1 X204.433 Y137.964 E.03268
G1 X205.177 Y138.574 E.03017
G1 X205.7 Y138.117 E.02178
G1 X206.719 Y137.599 E.03584
G1 X208.046 Y137.315 E.04255
G1 X232.377 Y137.319 E.76288
G1 X233.578 Y137.573 E.03849
G1 X234.62 Y138.084 E.03639
G1 X235.624 Y138.965 E.04188
G1 X236.343 Y140.056 E.04097
G1 X236.8 Y141.716 E.05398
G1 X236.755 Y149.466 E.243
G1 X236.35 Y150.787 E.04332
G1 X235.753 Y151.742 E.03531
G1 X235.604 Y151.903 E.00688
G1 X236.396 Y153.173 E.04693
G1 X236.787 Y154.617 E.04691
G1 X236.755 Y162.465 E.24607
G1 X236.35 Y163.787 E.04335
G1 X235.753 Y164.742 E.03531
G1 X235.604 Y164.903 E.00688
G1 X236.396 Y166.173 E.04693
G1 X236.787 Y167.617 E.04691
G1 X236.755 Y175.465 E.24607
G1 X236.35 Y176.787 E.04335
G1 X235.753 Y177.742 E.03531
G1 X235.604 Y177.903 E.00688
G1 X236.396 Y179.173 E.04693
G1 X236.787 Y180.616 E.04688
G1 X236.764 Y188.402 E.24413
G1 X236.42 Y189.633 E.04008
G1 X235.761 Y190.73 E.04012
G1 X234.694 Y191.724 E.04572
G1 X233.589 Y192.281 E.0388
G1 X232.323 Y192.542 E.04053
G1 X207.967 Y192.542 E.76367
G1 X206.471 Y192.158 E.04843
G1 X205.516 Y191.607 E.03457
G1 X205.182 Y191.295 E.01433
G1 X204.66 Y191.748 E.02167
G1 X203.647 Y192.261 E.0356
G1 X202.324 Y192.542 E.04241
G1 X177.713 Y192.509 E.77166
G1 X176.45 Y192.148 E.04119
G1 X175.334 Y191.465 E.04102
G1 X174.442 Y190.512 E.04093
G1 X173.845 Y189.365 E.04054
G1 X173.584 Y188.189 E.03777
G1 X173.612 Y180.416 E.24372
G1 X173.994 Y179.111 E.04263
G1 X173.56 Y179.292 E.01474
G1 X172.325 Y179.542 E.03951
G1 X147.964 Y179.542 E.76382
G1 X146.346 Y179.102 E.05257
G1 X145.291 Y178.429 E.03924
G1 X144.408 Y177.464 E.04101
G1 X143.822 Y176.3 E.04086
G1 X143.572 Y175.063 E.03957
G1 X143.596 Y167.531 E.23616
G1 X144.001 Y166.113 E.04624
G1 X144.598 Y165.141 E.03577
G1 X144.81 Y164.917 E.00967
G1 X144.421 Y164.483 E.01827
G1 X143.881 Y163.463 E.03619
G1 X143.589 Y162.233 E.03964
G1 X143.595 Y154.529 E.24155
G1 X144.058 Y152.994 E.05027
G1 X144.744 Y151.966 E.03875
G1 X145.63 Y151.166 E.03743
G1 X145.848 Y151.054 E.00768
M204 S1000
G1 X146.016 Y151.386 F10800
M204 S800
G1 F1200
G1 X146.92 Y150.928 E.03177
G1 X148.066 Y150.692 E.03669
G1 X172.357 Y150.696 E.76163
G1 X173.346 Y150.893 E.03162
G1 X174.258 Y151.299 E.0313
G1 X174.507 Y151.493 E.0099
G1 X174.74 Y151.3 E.00949
G1 X174.207 Y150.256 E.03675
G1 X173.953 Y149.086 E.03754
G1 X173.981 Y141.501 E.23782
G1 X174.297 Y140.377 E.03661
G1 X174.906 Y139.36 E.03717
G1 X175.945 Y138.407 E.04421
G1 X176.967 Y137.912 E.0356
G1 X178.066 Y137.692 E.03514
G1 X202.357 Y137.696 E.76163
G1 X203.346 Y137.893 E.03162
G1 X204.255 Y138.298 E.0312
G1 X205.186 Y139.074 E.038
G1 X205.894 Y138.442 E.02976
G1 X206.868 Y137.946 E.03427
G1 X208.066 Y137.692 E.0384
G1 X232.357 Y137.696 E.76163
G1 X233.435 Y137.923 E.03454
G1 X234.392 Y138.385 E.03332
G1 X235.324 Y139.194 E.0387
G1 X236.012 Y140.239 E.03923
G1 X236.422 Y141.74 E.04879
G1 X236.378 Y149.435 E.24128
G1 X235.998 Y150.65 E.03992
G1 X235.45 Y151.516 E.03213
G1 X235.02 Y151.929 E.01869
G1 X235.399 Y152.282 E.01624
G1 X236.04 Y153.301 E.03775
G1 X236.41 Y154.642 E.04362
G1 X236.378 Y162.435 E.24435
G1 X235.998 Y163.65 E.03992
G1 X235.45 Y164.516 E.03213
G1 X235.02 Y164.929 E.01869
G1 X235.399 Y165.282 E.01624
G1 X236.04 Y166.301 E.03775
G1 X236.41 Y167.642 E.04362
G1 X236.378 Y175.435 E.24435
G1 X235.998 Y176.65 E.03992
G1 X235.45 Y177.516 E.03213
G1 X235.02 Y177.929 E.01869
G1 X235.399 Y178.282 E.01624
G1 X236.04 Y179.301 E.03775
G1 X236.41 Y180.641 E.04359
G1 X236.387 Y188.375 E.2425
G1 X236.064 Y189.504 E.03682
G1 X235.453 Y190.511 E.03693
G1 X234.459 Y191.428 E.0424
G1 X233.444 Y191.932 E.03553
G1 X232.304 Y192.165 E.03648
G1 X207.991 Y192.165 E.76232
G1 X206.637 Y191.818 E.04383
G1 X205.726 Y191.293 E.03297
G1 X205.194 Y190.776 E.02326
G1 X204.467 Y191.423 E.03051
G1 X203.499 Y191.913 E.03402
G1 X202.305 Y192.165 E.03826
G1 X177.79 Y192.139 E.76865
G1 X176.623 Y191.812 E.038
M73 P0 R82
G1 X175.592 Y191.188 E.03779
G1 X174.735 Y190.273 E.03931
G1 X174.207 Y189.258 E.03587
G1 X173.962 Y188.169 E.035
G1 X173.989 Y180.446 E.24215
G1 X174.34 Y179.28 E.03818
G1 X174.77 Y178.577 E.02584
G1 X174.578 Y178.367 E.00892
G1 X173.453 Y178.929 E.03943
G1 X172.306 Y179.165 E.03672
G1 X147.989 Y179.165 E.76244
G1 X146.523 Y178.768 E.04762
G1 X145.552 Y178.155 E.036
G1 X144.704 Y177.229 E.03937
G1 X144.171 Y176.155 E.03759
G1 X143.949 Y175.045 E.03549
M73 Q1 S83
G1 X143.973 Y167.558 E.23475
G1 X144.336 Y166.289 E.04138
M73 P1 R82
G1 X144.906 Y165.361 E.03415
G1 X145.34 Y164.932 E.01913
G1 X144.742 Y164.283 E.02767
G1 X144.226 Y163.308 E.03459
G1 X143.966 Y162.211 E.03535
G1 X143.972 Y154.557 E.23999
G1 X144.388 Y153.178 E.04516
G1 X145.014 Y152.23 E.03562
G1 X145.864 Y151.463 E.0359
G1 X145.962 Y151.413 E.00345
M204 S1000
G1 X146.13 Y151.744 F10800
M204 S800
G1 F1200
G1 X147.022 Y151.292 E.03135
G1 X148.086 Y151.07 E.03408
G1 X172.338 Y151.073 E.7604
G1 X173.212 Y151.246 E.02794
G1 X174.077 Y151.631 E.02969
G1 X175.192 Y152.572 E.04575
G1 X175.872 Y151.947 E.02896
G1 X175.029 Y151.036 E.03892
G1 X174.569 Y150.15 E.0313
G1 X174.33 Y149.066 E.0348
G1 X174.358 Y141.529 E.23632
G1 X174.652 Y140.507 E.03334
G1 X175.214 Y139.579 E.03402
G1 X176.136 Y138.734 E.03921
G1 X177.066 Y138.276 E.0325
G1 X178.085 Y138.07 E.0326
G1 X202.338 Y138.073 E.76044
G1 X203.212 Y138.246 E.02794
G1 X204.077 Y138.631 E.02969
G1 X205.195 Y139.577 E.04592
G1 X206.088 Y138.766 E.03782
G1 X207.016 Y138.294 E.03264
G1 X208.085 Y138.07 E.03425
G1 X232.338 Y138.073 E.76044
G1 X233.294 Y138.273 E.03062
G1 X234.165 Y138.687 E.03024
G1 X235.056 Y139.461 E.03701
G1 X235.679 Y140.419 E.03583
G1 X236.045 Y141.763 E.04367
G1 X236.001 Y149.405 E.23961
G1 X235.666 Y150.469 E.03498
G1 X235.145 Y151.293 E.03057
G1 X234.456 Y151.935 E.02953
G1 X235.095 Y152.507 E.02689
G1 X235.706 Y153.478 E.03597
G1 X236.033 Y154.666 E.03863
G1 X236.001 Y162.405 E.24265
G1 X235.666 Y163.469 E.03498
G1 X235.145 Y164.293 E.03057
G1 X234.456 Y164.935 E.02953
G1 X235.095 Y165.507 E.02689
G1 X235.706 Y166.478 E.03597
G1 X236.033 Y167.666 E.03863
G1 X236.001 Y175.405 E.24265
G1 X235.666 Y176.469 E.03498
G1 X235.145 Y177.293 E.03057
G1 X234.456 Y177.935 E.02953
G1 X235.095 Y178.507 E.02689
G1 X235.706 Y179.478 E.03597
G1 X236.033 Y180.666 E.03863
G1 X236.01 Y188.346 E.2408
G1 X235.71 Y189.373 E.03355
G1 X235.147 Y190.29 E.03374
G1 X234.225 Y191.13 E.03911
G1 X233.301 Y191.583 E.03227
G1 X232.286 Y191.788 E.03247
G1 X208.014 Y191.788 E.76103
G1 X206.803 Y191.479 E.03919
G1 X205.936 Y190.979 E.03138
G1 X205.207 Y190.255 E.03221
G1 X204.273 Y191.098 E.03945
G1 X203.351 Y191.565 E.03241
G1 X202.286 Y191.788 E.03412
G1 X177.867 Y191.769 E.76564
G1 X176.75 Y191.456 E.03637
G1 X175.812 Y190.88 E.03451
G1 X175.029 Y190.036 E.0361
G1 X174.569 Y189.15 E.0313
G1 X174.339 Y188.148 E.03223
G1 X174.366 Y180.475 E.24058
G1 X174.693 Y179.416 E.03475
G1 X175.215 Y178.578 E.03096
G1 X175.874 Y177.945 E.02865
G1 X175.207 Y177.255 E.03009
G1 X174.273 Y178.098 E.03945
G1 X173.351 Y178.565 E.03241
G1 X172.286 Y178.788 E.03412
G1 X148.014 Y178.788 E.76103
G1 X146.698 Y178.434 E.04273
G1 X145.811 Y177.88 E.03279
G1 X145.029 Y177.035 E.0361
G1 X144.535 Y176.054 E.03444
G1 X144.326 Y175.027 E.03286
G1 X144.35 Y167.585 E.23334
G1 X144.671 Y166.464 E.03656
G1 X145.214 Y165.58 E.03253
G1 X145.873 Y164.947 E.02865
G1 X145.063 Y164.084 E.03711
G1 X144.571 Y163.153 E.03302
G1 X144.339 Y162.148 E.03234
G1 X144.349 Y154.585 E.23713
G1 X144.718 Y153.363 E.04002
G1 X145.315 Y152.458 E.03399
G1 X146.08 Y151.775 E.03215
M204 S1000
G1 X146.328 Y152.059 F10800
M204 S800
G1 F1200
G1 X147.167 Y151.64 E.0294
G1 X148.105 Y151.447 E.03003
G1 X172.319 Y151.45 E.75921
G1 X173.116 Y151.611 E.02549
G1 X173.897 Y151.964 E.02687
G1 X174.756 Y152.691 E.03528
G1 X175.184 Y153.337 E.0243
G1 X175.584 Y152.723 E.02298
G1 X176.248 Y152.113 E.02827
G1 X176.564 Y151.918 E.01164
G1 X176.069 Y151.604 E.01838
G1 X175.351 Y150.839 E.0329
G1 X174.915 Y149.999 E.02967
G1 X174.707 Y149.047 E.03055
G1 X174.735 Y141.558 E.23481
G1 X175.006 Y140.638 E.03007
G1 X175.522 Y139.799 E.03088
G1 X176.329 Y139.059 E.03433
G1 X177.167 Y138.64 E.02938
G1 X178.105 Y138.447 E.03003
G1 X202.319 Y138.45 E.75921
G1 X203.116 Y138.611 E.02549
G1 X203.897 Y138.964 E.02687
G1 X204.756 Y139.691 E.03528
G1 X205.183 Y140.334 E.0242
G1 X205.551 Y139.763 E.0213
G1 X206.283 Y139.09 E.03118
G1 X207.165 Y138.641 E.03103
G1 X208.104 Y138.447 E.03006
G1 X232.319 Y138.45 E.75924
G1 X233.155 Y138.624 E.02677
G1 X233.94 Y138.991 E.02717
G1 X234.755 Y139.69 E.03367
G1 X235.347 Y140.6 E.03404
G1 X235.668 Y141.786 E.03852
G1 X235.624 Y149.374 E.23792
G1 X235.334 Y150.288 E.03007
G1 X234.84 Y151.069 E.02898
G1 X233.887 Y151.943 E.04054
G1 X234.791 Y152.732 E.03762
G1 X235.372 Y153.655 E.0342
G1 X235.662 Y154.738 E.03515
G1 X235.624 Y162.374 E.23942
G1 X235.334 Y163.288 E.03007
G1 X234.84 Y164.069 E.02898
G1 X233.887 Y164.943 E.04054
G1 X234.791 Y165.732 E.03762
G1 X235.372 Y166.655 E.0342
G1 X235.662 Y167.738 E.03515
G1 X235.624 Y175.374 E.23942
G1 X235.334 Y176.288 E.03007
G1 X234.84 Y177.069 E.02898
G1 X233.887 Y177.943 E.04054
G1 X234.791 Y178.732 E.03762
G1 X235.372 Y179.655 E.0342
G1 X235.662 Y180.738 E.03515
G1 X235.633 Y188.317 E.23764
G1 X235.356 Y189.24 E.03022
G1 X234.841 Y190.069 E.0306
G1 X234.034 Y190.805 E.03425
G1 X233.2 Y191.219 E.02919
G1 X232.266 Y191.411 E.0299
G1 X208.038 Y191.411 E.75965
G1 X206.969 Y191.139 E.03459
G1 X206.147 Y190.665 E.02975
G1 X205.412 Y189.924 E.03272
G1 X205.185 Y189.54 E.01399
G1 X204.811 Y190.104 E.02122
G1 X204.079 Y190.774 E.03111
G1 X203.203 Y191.218 E.03079
G1 X202.267 Y191.411 E.02997
G1 X177.941 Y191.398 E.76272
G1 X176.922 Y191.119 E.03313
M73 Q1 S82
G1 X176.068 Y190.603 E.03128
G1 X175.351 Y189.839 E.03285
G1 X174.915 Y188.999 E.02967
G1 X174.711 Y188.087 E.0293
G1 X174.743 Y180.505 E.23773
G1 X175.025 Y179.595 E.02987
G1 X175.521 Y178.799 E.02941
G1 X176.247 Y178.114 E.0313
G1 X176.564 Y177.917 E.0117
G1 X176.07 Y177.605 E.01832
G1 X175.412 Y176.924 E.02969
G1 X175.185 Y176.54 E.01399
G1 X174.811 Y177.104 E.02122
G1 X174.079 Y177.774 E.03111
G1 X173.203 Y178.218 E.03079
G1 X172.267 Y178.411 E.02997
G1 X148.038 Y178.411 E.75968
G1 X146.872 Y178.098 E.03785
G1 X146.068 Y177.603 E.0296
G1 X145.352 Y176.839 E.03283
G1 X144.899 Y175.952 E.03123
G1 X144.703 Y175.008 E.03023
G1 X144.726 Y167.613 E.23187
G1 X145.005 Y166.64 E.03174
G1 X145.522 Y165.799 E.03095
G1 X146.247 Y165.114 E.03127
G1 X146.564 Y164.917 E.0117
G1 X146.07 Y164.605 E.01832
G1 X145.384 Y163.884 E.0312
G1 X144.916 Y163 E.03136
G1 X144.711 Y162.087 E.02934
G1 X144.727 Y154.613 E.23434
G1 X145.048 Y153.546 E.03494
G1 X145.586 Y152.723 E.03083
G1 X146.283 Y152.099 E.02933
M204 S1000
G1 X146.52 Y152.385 F10800
M204 S800
G1 F1200
G1 X147.313 Y151.989 E.02779
G1 X148.124 Y151.824 E.02595
G1 X172.299 Y151.827 E.75799
G1 X173.018 Y151.976 E.02302
G1 X173.715 Y152.295 E.02403
G1 X174.488 Y152.958 E.03193
G1 X175.186 Y154.047 E.04056
G1 X175.859 Y152.983 E.03947
G1 X176.479 Y152.413 E.02641
G1 X177.363 Y151.953 E.03125
G1 X176.323 Y151.324 E.03811
G1 X175.674 Y150.641 E.02954
G1 X175.262 Y149.848 E.02802
G1 X175.08 Y148.989 E.02753
G1 X175.112 Y141.588 E.23206
G1 X175.359 Y140.773 E.0267
G1 X175.828 Y140.021 E.02779
G1 X176.521 Y139.384 E.02951
G1 X177.313 Y138.989 E.02775
G1 X178.124 Y138.824 E.02595
G1 X202.299 Y138.827 E.75799
G1 X203.018 Y138.976 E.02302
